X:55
T:Dunmore Lasses
M:C
L:1/8
K:E Minor
D|EDEF GFGA|Bee2 Bee2|EDEF GABG|AdBA GEFD|!
EDEF GFGA|Beed e2ef|g2fg edBG|AdBA GDD:|!
f|gfeg fedA|Bee2 Beef|gfeg fedA|BdAF GEEf|!
gfeg fedA|Beed e2ef|g2fg edBG|AdBA GDD:|!
